Papirus/22x22/apps/virt-manager.svg

<?xml version="1.0" encoding="UTF-8" standalone="no"?>
<svg xmlns="http://www.w3.org/2000/svg" height="22" width="22" version="1">
 <rect transform="matrix(0,-1,-1,0,0,0)" rx="1" ry="1" height="20" width="20" y="-21" x="-21" fill="#6d6d6d"/>
 <path opacity=".1" fill="#fff" d="m2 1c-0.554 0-1 0.446-1 1v0.5c0-0.554 0.446-1 1-1h18c0.554 0 1 0.446 1 1v-0.5c0-0.554-0.446-1-1-1h-18z"/>
 <path opacity=".2" d="m2 21.5c-0.554 0-1-0.446-1-1v-0.5c0 0.554 0.446 1 1 1h18c0.554 0 1-0.446 1-1v0.5c0 0.554-0.446 1-1 1h-18z"/>
 <path opacity=".2" d="m2.375 8.5 2.4188 6h1.725l2.3813-6h-1.6312l-1.6312 3.9562-1.6125-3.9562h-1.65z" style="color:#000000" fill-opacity=".971"/>
 <path d="m2.375 8 2.4188 6h1.725l2.3813-6h-1.6312l-1.6312 3.9562-1.6127-3.956h-1.65z" fill="#631428"/>
 <path opacity=".2" d="m10.494 8.5c-0.81232 2.0104-1.6379 4.0082-2.4938 6h1.725l1.6125-3.9375 1.5938 3.9375h1.725l1.5938-4.05 1.65 4.05h1.725c-0.85584-1.9918-1.7002-3.9896-2.5125-6h-1.7251l-1.5938 3.9562-1.631-3.956h-1.6687z" style="color:#000000" fill-opacity=".971"/>
 <path d="m10.494 8c-0.81232 2.0104-1.6379 4.0082-2.4938 6h1.725l1.6125-3.9375 1.5938 3.9375h1.725l1.5938-4.05 1.65 4.05h1.725c-0.856-1.992-1.7-3.99-2.513-6h-1.725l-1.593 3.956-1.632-3.956h-1.668z" fill="#8b9193" fill-opacity=".941"/>
</svg>

<svg xmlns="http://www.w3.org/2000/svg" width="22" height="22" version="1">
 <rect style="fill:#6d6d6d" width="20" height="20" x="-21" y="-21" rx="1" ry="1" transform="matrix(0,-1,-1,0,0,0)"/>
 <path style="opacity:0.1;fill:#ffffff" d="M 2,1 C 1.446,1 1,1.446 1,2 v 0.5 c 0,-0.554 0.446,-1 1,-1 h 18 c 0.554,0 1,0.446 1,1 V 2 C 21,1.446 20.554,1 20,1 Z"/>
 <path style="opacity:0.2" d="m 2,21.5 c -0.554,0 -1,-0.446 -1,-1 V 20 c 0,0.554 0.446,1 1,1 h 18 c 0.554,0 1,-0.446 1,-1 v 0.5 c 0,0.554 -0.446,1 -1,1 z"/>
 <path style="opacity:0.2;fill-opacity:0.97100004" d="m 2.375,8.5 2.4188,6 h 1.725 l 2.3813,-6 H 7.2689 L 5.6377,12.4562 4.0252,8.5 h -1.65 z"/>
 <path style="fill:#6a2537" d="m 2.375,8 2.4188,6 h 1.725 L 8.9001,8 H 7.2689 L 5.6377,11.9562 4.025,8.0002 h -1.65 z"/>
 <path style="opacity:0.2;fill-opacity:0.97100004" d="m 10.494,8.5 c -0.81232,2.0104 -1.6379,4.0082 -2.4938,6 h 1.725 l 1.6125,-3.9375 1.5938,3.9375 h 1.725 l 1.5938,-4.05 1.65,4.05 h 1.725 c -0.85584,-1.9918 -1.7002,-3.9896 -2.5125,-6 h -1.7251 l -1.5938,3.9562 -1.631,-3.956 h -1.6687 z"/>
 <path style="fill:#a6aaad" d="m 10.494,8 c -0.81232,2.0104 -1.6379,4.0082 -2.4938,6 h 1.725 L 11.3377,10.0625 12.9315,14 h 1.725 l 1.5938,-4.05 1.65,4.05 h 1.725 c -0.856,-1.992 -1.7,-3.99 -2.513,-6 h -1.725 L 13.7943,11.956 12.1623,8 h -1.668 z"/>
</svg>
